**harmony	**harte	**kern	**silbe	**kern	**silbe	**rhyme	**timestamp	**phrase
*M4/4	*M4/4	*ICvox	*	*ICvox	*	*	*	*
*	*	*VRlead	*	*VRharmonize	*	*	*	*
*	*	*Hstimme	*	*Nstimme	*	*	*	*
*G:	*G:	*G:	*	*G:	*	*	*	*
*	*	*M4/4	*	*M4/4	*	*	*	*
*	*	*clefG2	*	*clefG2	*	*	*	*
1r;	1r	r;	.	r;	.	.	0	.
=1	=1	=1	=1	=1	=1	=1	=1	=1
*>Letter>A2	*>Letter>A2	*>Letter>A2	*>Letter>A2	*>Letter>A2	*>Letter>A2	*>Letter>A2	*>Letter>A2	*>Letter>A2
*>Label>Intro	*>Label>Intro	*>Label>Intro	*>Label>Intro	*>Label>Intro	*>Label>Intro	*>Label>Intro	*>Label>Intro	*>Label>Intro
2GM	G:maj	1r	.	1r	.	.	0.255	newline
2DM	D:maj	.	.	.	.	.	1.64	.
=2	=2	=2	=2	=2	=2	=2	=2	=2
1CM	C:maj	1r	.	1r	.	.	3.024	.
=3	=3	=3	=3	=3	=3	=3	=3	=3
2GM	G:maj	1r	.	1r	.	.	5.793	.
2DM	D:maj	.	.	.	.	.	7.178	.
=4	=4	=4	=4	=4	=4	=4	=4	=4
1CM	C:maj	1r	.	1r	.	.	8.562	.
=5	=5	=5	=5	=5	=5	=5	=5	=5
*>Letter>A	*>Letter>A	*>Letter>A	*>Letter>A	*>Letter>A	*>Letter>A	*>Letter>A	*>Letter>A	*>Letter>A
*>Label>Verse	*>Label>Verse	*>Label>Verse	*>Label>Verse	*>Label>Verse	*>Label>Verse	*>Label>Verse	*>Label>Verse	*>Label>Verse
2GM	G:maj	4r	.	1r	.	.	11.331	newline
.	.	16B	I	.	.	.	.	.
.	.	8.d	don't	.	.	.	.	.
2DM	D:maj	4d	know	.	.	.	12.693	.
.	.	16A	where	.	.	.	.	.
.	.	8A	I'm	.	.	.	.	.
.	.	[16A	go-	.	.	.	.	.
=6	=6	=6	=6	=6	=6	=6	=6	=6
1CM	C:maj	8A]	_	1r	.	.	14.055	.
.	.	4G	-in'	.	.	.	.	.
.	.	8r	.	.	.	.	.	.
.	.	2r	.	.	.	.	.	.
=7	=7	=7	=7	=7	=7	=7	=7	=7
2GM	G:maj	4r	.	1r	.	.	16.778	.
.	.	16B	but	.	.	.	.	.
.	.	8d	I	.	.	.	.	.
.	.	[16e	sure	.	.	.	.	.
2DM	D:maj	8e]	_	.	.	.	18.14	.
.	.	8.d	know	.	.	.	.	.
.	.	16A#	where	.	.	.	.	.
.	.	8B	I've	.	.	.	.	.
=8	=8	=8	=8	=8	=8	=8	=8	=8
1CM	C:maj	8A	been	1r	.	.	19.501	.
.	.	4.G	_	.	.	.	.	.
.	.	2r	.	.	.	.	.	.
=9	=9	=9	=9	=9	=9	=9	=9	=9
2GM	G:maj	4r	.	1r	.	.	22.225	newline
.	.	16B	Hang-	.	.	.	.	.
.	.	16d	-in'	.	.	.	.	.
.	.	16d	on	.	.	.	.	.
.	.	16B	the	.	.	.	.	.
2DM	D:maj/3	16d	pro-	.	.	.	23.603	.
.	.	16d	-mi-	.	.	.	.	.
.	.	4B	-ses	.	.	.	.	.
.	.	16A	in	.	.	.	.	.
.	.	16G	the	.	.	.	.	.
=10	=10	=10	=10	=10	=10	=10	=10	=10
4CM	C:maj/3	8A	songs	1r	.	.	24.981	.
.	.	16G	of	.	.	.	.	.
.	.	[16A	yes-	.	.	.	.	.
2CM	C:maj	16A]	_	.	.	.	25.671	.
.	.	16A	-ter-	.	.	.	.	.
.	.	16G	-day	.	.	.	.	.
.	.	[16E	_	.	.	.	.	.
.	.	4E]	_	.	.	.	.	.
4CM	C:maj/7	4r	.	.	.	.	27.049	.
=11	=11	=11	=11	=11	=11	=11	=11	=11
1Am	A:min	4r	.	1r	.	.	27.738	newline
.	.	16r	.	.	.	.	.	.
.	.	16E	And	.	.	.	.	.
.	.	8E	I've	.	.	.	.	.
.	.	8c	made	.	.	.	.	.
.	.	8B	up	.	.	.	.	.
.	.	8G	my	.	.	.	.	.
.	.	[8A	mind	.	.	A	.	.
=12	=12	=12	=12	=12	=12	=12	=12	=12
1DM	D:maj	2A]	_	1r	.	.	30.473	.
.	.	2r	.	.	.	.	.	.
=13	=13	=13	=13	=13	=13	=13	=13	=13
1Am	A:min	4r	.	1r	.	.	33.208	.
.	.	16r	.	.	.	.	.	.
.	.	16E	I	.	.	.	.	.
.	.	8c	ain't	.	.	.	.	.
.	.	8c	wast-	.	.	.	.	.
.	.	16B	-in'	.	.	.	.	.
.	.	[16A	no	.	.	.	.	.
.	.	16A]	_	.	.	.	.	.
.	.	8.G	more	.	.	.	.	.
=14	=14	=14	=14	=14	=14	=14	=14	=14
1DM	D:maj	4.A	time	1r	.	A	35.943	.
.	.	8r	.	.	.	.	.	.
.	.	8B	Here	.	.	.	.	.
.	.	8A	I	.	.	.	.	.
.	.	8B	go	.	.	.	.	.
.	.	8A	a-	.	.	.	.	.
=15	=15	=15	=15	=15	=15	=15	=15	=15
*>Letter>B	*>Letter>B	*>Letter>B	*>Letter>B	*>Letter>B	*>Letter>B	*>Letter>B	*>Letter>B	*>Letter>B
*>Label>Preverse	*>Label>Preverse	*>Label>Preverse	*>Label>Preverse	*>Label>Preverse	*>Label>Preverse	*>Label>Preverse	*>Label>Preverse	*>Label>Preverse
1Em	E:min	16G	-gain	1r	.	.	38.677	newline
.	.	[8.E	_	.	.	.	.	.
.	.	4E]	_	.	.	.	.	.
.	.	2r	.	.	.	.	.	.
=16	=16	=16	=16	=16	=16	=16	=16	=16
2Am	A:min	2r	.	1r	.	.	41.41	.
2CM	C:maj	8A	Here	.	.	.	42.776	.
.	.	8G	I	.	.	.	.	.
.	.	8A	go	.	.	.	.	.
.	.	16d	a-	.	.	.	.	.
.	.	[16B	-gain	.	.	.	.	.
=17	=17	=17	=17	=17	=17	=17	=17	=17
2GM	G:maj	2B]	_	1r	.	.	44.143	.
2Em	E:min	2r	.	.	.	.	45.509	.
=18	=18	=18	=18	=18	=18	=18	=18	=18
2Am	A:min	1r	.	1r	.	.	46.876	.
4CM	C:maj	.	.	.	.	.	48.242	.
4DM	D:maj	.	.	.	.	.	48.925	.
=19	=19	=19	=19	=19	=19	=19	=19	=19
*>Letter>A	*>Letter>A	*>Letter>A	*>Letter>A	*>Letter>A	*>Letter>A	*>Letter>A	*>Letter>A	*>Letter>A
*>Label>Verse	*>Label>Verse	*>Label>Verse	*>Label>Verse	*>Label>Verse	*>Label>Verse	*>Label>Verse	*>Label>Verse	*>Label>Verse
2GM	G:maj	4r	.	1r	.	.	49.608	newline
.	.	16d	Though	.	.	.	.	.
.	.	16d	I	.	.	.	.	.
.	.	8d	keep	.	.	.	.	.
2DM	D:maj	8d	search-	.	.	.	50.973	.
.	.	8B	-in'	.	.	.	.	.
.	.	8A	for	.	.	.	.	.
.	.	16B	an	.	.	.	.	.
.	.	[16A	ans-	.	.	.	.	.
=20	=20	=20	=20	=20	=20	=20	=20	=20
1CM	C:maj	8A]	_	1r	.	.	52.337	.
.	.	4.G	-wer	.	.	.	.	.
.	.	2r	.	.	.	.	.	.
=21	=21	=21	=21	=21	=21	=21	=21	=21
2GM	G:maj	8r	.	1r	.	.	55.066	.
.	.	16r	.	.	.	.	.	.
.	.	16G	I	.	.	.	.	.
.	.	16d	ne-	.	.	.	.	.
.	.	16d	-ver	.	.	.	.	.
.	.	16d	seem	.	.	.	.	.
.	.	16B	to	.	.	.	.	.
2DM	D:maj	16d	find	.	.	.	56.43	.
.	.	8.B	_	.	.	.	.	.
.	.	16B	what	.	.	.	.	.
.	.	16A	I'm	.	.	.	.	.
.	.	8B	look-	.	.	.	.	.
=22	=22	=22	=22	=22	=22	=22	=22	=22
1CM	C:maj	8A	-ing	1r	.	.	57.795	.
.	.	16G	for	.	.	.	.	.
.	.	[16E	_	.	.	.	.	.
.	.	4E]	_	.	.	.	.	.
.	.	2r	.	.	.	.	.	.
=23	=23	=23	=23	=23	=23	=23	=23	=23
2GM	G:maj	8r	.	1r	.	.	60.523	newline
.	.	16g	Oh	.	.	.	.	.
.	.	8.g	lord	.	.	.	.	.
.	.	16d	I	.	.	.	.	.
.	.	8.e	pray	.	.	.	.	.
2DM	D:maj/3	.	.	.	.	.	61.9	.
.	.	16d	you	.	.	.	.	.
.	.	8d	give	.	.	.	.	.
.	.	8d	me	.	.	.	.	.
.	.	[16e	strength	.	.	.	.	.
=24	=24	=24	=24	=24	=24	=24	=24	=24
4CM	C:maj/3	16e]	_	1r	.	.	63.277	.
.	.	16d	to	.	.	.	.	.
.	.	8e	ca-	.	.	.	.	.
2CM	C:maj	16d	-rry	.	.	.	63.965	.
.	.	16A	on	.	.	.	.	.
.	.	16B	_	.	.	.	.	.
.	.	16A	_	.	.	.	.	.
.	.	4G	_	.	.	.	.	.
4CM	C:maj/7	4r	.	.	.	.	65.341	.
=25	=25	=25	=25	=25	=25	=25	=25	=25
1Am	A:min	4r	.	1r	.	.	66.03	newline
.	.	16r	.	.	.	.	.	.
.	.	16e	'cause	.	.	.	.	.
.	.	8e	I	.	.	.	.	.
.	.	8g	know	.	.	.	.	.
.	.	8g	what	.	.	.	.	.
.	.	8g	it	.	.	B	.	.
.	.	8e	means	.	.	.	.	.
=26	=26	=26	=26	=26	=26	=26	=26	=26
1DM	D:maj	8e	_	1r	.	.	68.725	.
.	.	4.d	_	.	.	.	.	.
.	.	4r	.	.	.	.	.	.
.	.	8r	.	.	.	.	.	.
.	.	16r	.	.	.	.	.	.
.	.	16e	to	.	.	.	.	.
=27	=27	=27	=27	=27	=27	=27	=27	=27
1Am	A:min	8g	walk	1r	.	.	71.421	.
.	.	16g	a-	.	.	.	.	.
.	.	[16g	-long	.	.	.	.	.
.	.	8g]	_	.	.	.	.	.
.	.	16r	.	.	.	.	.	.
.	.	16e	the	.	.	.	.	.
.	.	8g	lone-	.	.	.	.	.
.	.	8g	-ly	.	.	.	.	.
.	.	16b	street	.	.	B	.	.
.	.	16a	_	.	.	.	.	.
.	.	16g	of	.	.	.	.	.
.	.	[16a	dreams	.	.	B	.	.
=28	=28	=28	=28	=28	=28	=28	=28	=28
2DM	D:maj	4a]	_	1r	.	.	74.116	.
.	.	8d	_	.	.	.	.	.
.	.	8r	.	.	.	.	.	.
4CM	C:maj	2r	.	.	.	.	75.464	.
4DM	D:maj	.	.	.	.	.	76.138	.
=29	=29	=29	=29	=29	=29	=29	=29	=29
*>Letter>C	*>Letter>C	*>Letter>C	*>Letter>C	*>Letter>C	*>Letter>C	*>Letter>C	*>Letter>C	*>Letter>C
*>Label>Chorus	*>Label>Chorus	*>Label>Chorus	*>Label>Chorus	*>Label>Chorus	*>Label>Chorus	*>Label>Chorus	*>Label>Chorus	*>Label>Chorus
2GM	G:maj	8g	Here	8b	Here	.	76.812	newline
.	.	16e	I	16a	I	.	.	.
.	.	[16d	go	[16g	go	C	.	.
.	.	16d]	_	16g]	_	.	.	.
.	.	16r	.	16r	.	.	.	.
.	.	16e	a-	16a	a-	.	.	.
.	.	[16g	-gain	[16b	-gain	.	.	.
2CM	C:maj	8g]	_	8b]	_	.	78.156	.
.	.	8e	on	8g	on	.	.	.
.	.	8e	my	8g	my	.	.	.
.	.	16f#	own	16a	own	C	.	.
.	.	16e	_	16g	_	.	.	.
=30	=30	=30	=30	=30	=30	=30	=30	=30
2DM	D:maj	4d	_	4f#	_	.	79.5	.
.	.	4r	.	4r	.	.	.	.
4CM	C:maj	4r	.	4r	.	.	80.844	.
4DM	D:maj	8r	.	8r	.	.	81.516	.
.	.	16d	Go-	16g	Go-	.	.	.
.	.	16e	-ing	16a	-ing	.	.	.
=31	=31	=31	=31	=31	=31	=31	=31	=31
2GM	G:maj	8g	down	8b	down	.	82.188	.
.	.	16g	the	16b	the	.	.	.
.	.	8g	on-	8b	on-	C	.	.
.	.	8g	-ly	8b	-ly	.	.	.
.	.	8.a	road	8.cc	road	C	.	.
2CM	C:maj	.	.	.	.	.	83.533	.
.	.	8g	I've	8b	I've	.	.	.
.	.	16g	e-	16b	e-	.	.	.
.	.	16g	-ver	16b	-ver	.	.	.
.	.	16f#	known	16a	known	C	.	.
.	.	16e	_	16g	_	.	.	.
=32	=32	=32	=32	=32	=32	=32	=32	=32
2DM	D:maj	8d	_	8f#	_	.	84.877	.
.	.	8r	.	8r	.	.	.	.
.	.	4r	.	4r	.	.	.	.
4CM	C:maj	4r	.	4r	.	.	86.221	.
4DM	D:maj	8r	.	8r	.	.	86.893	.
.	.	16d	Like	16g	Like	.	.	.
.	.	16e	a	16a	a	.	.	.
=33	=33	=33	=33	=33	=33	=33	=33	=33
2GM	G:maj	8g	drif-	8b	drif-	.	87.565	newline
.	.	16e	-ter	16a	-ter	.	.	.
.	.	[16d	I	[16g	I	.	.	.
.	.	16d]	_	16g]	_	.	.	.
.	.	8e	was	8a	was	.	.	.
.	.	[16g	born	[16b	born	.	.	.
2CM	C:maj	8.g]	_	8.b]	_	.	88.898	.
.	.	16e	to	16g	to	.	.	.
.	.	8e	walk	8g	walk	.	.	.
.	.	16e	a-	16g	a-	.	.	.
.	.	16e	-lone	16g	-lone	C	.	.
=34	=34	=34	=34	=34	=34	=34	=34	=34
2DM	D:maj	16f#	_	16a	_	.	90.231	.
.	.	16e	_	16g	_	.	.	.
.	.	8d	_	8f#	_	.	.	.
.	.	4r	.	4r	.	.	.	.
4CM	C:maj	2r	.	2r	.	.	91.564	.
4Bm	B:1	.	.	.	.	.	92.231	.
=35	=35	=35	=35	=35	=35	=35	=35	=35
1Am	A:min	4r	.	1r	.	.	92.897	newline
.	.	16r	.	.	.	.	.	.
.	.	16c	And	.	.	.	.	.
.	.	8c	I've	.	.	.	.	.
.	.	8c	made	.	.	.	.	.
.	.	8c	up	.	.	.	.	.
.	.	8e	my	.	.	.	.	.
.	.	8e	mind	.	.	A	.	.
=36	=36	=36	=36	=36	=36	=36	=36	=36
1DM	D:maj	4d	_	1r	.	.	95.556	.
.	.	4r	.	.	.	.	.	.
.	.	2r	.	.	.	.	.	.
=37	=37	=37	=37	=37	=37	=37	=37	=37
1Am	A:min	4r	.	1r	.	.	98.214	.
.	.	16c	I	.	.	.	.	.
.	.	8c	ain't	.	.	.	.	.
.	.	[16c	wast-	.	.	.	.	.
.	.	8c]	_	.	.	.	.	.
.	.	8B	-in'	.	.	.	.	.
.	.	16A	no	.	.	.	.	.
.	.	8G	more	.	.	.	.	.
.	.	[16A	time	.	.	A	.	.
=38	=38	=38	=38	=38	=38	=38	=38	=38
2DM	D:maj	4A]	_	1r	.	.	100.872	.
.	.	4r	.	.	.	.	.	.
4CM	C:maj	2r	.	.	.	.	102.201	.
4DM	D:maj	.	.	.	.	.	102.866	.
=39	=39	=39	=39	=39	=39	=39	=39	=39
*>Letter>A	*>Letter>A	*>Letter>A	*>Letter>A	*>Letter>A	*>Letter>A	*>Letter>A	*>Letter>A	*>Letter>A
*>Label>Verse	*>Label>Verse	*>Label>Verse	*>Label>Verse	*>Label>Verse	*>Label>Verse	*>Label>Verse	*>Label>Verse	*>Label>Verse
2GM	G:maj	8r	.	1r	.	.	103.531	newline
.	.	16r	.	.	.	.	.	.
.	.	16B	I'm	.	.	.	.	.
.	.	16B	just	.	.	.	.	.
.	.	16d	a-	.	.	.	.	.
.	.	16d	-no-	.	.	.	.	.
.	.	16B	-ther	.	.	.	.	.
2DM	D:maj/4	8d	heart	.	.	.	104.866	.
.	.	8A	in	.	.	.	.	.
.	.	8A	need	.	.	.	.	.
.	.	16A	of	.	.	.	.	.
.	.	16B	res-	.	.	.	.	.
=40	=40	=40	=40	=40	=40	=40	=40	=40
2CM	C:maj/5	16A	_	1r	.	.	106.201	.
.	.	8.G	-cue	.	.	.	.	.
.	.	4r	.	.	.	.	.	.
2DM	D:maj/4	2r	.	.	.	.	107.536	.
=41	=41	=41	=41	=41	=41	=41	=41	=41
2GM	G:maj	4r	.	1r	.	.	108.871	.
.	.	16B	Wait-	.	.	.	.	.
.	.	16d	-in'	.	.	.	.	.
.	.	8d	on	.	.	.	.	.
2DM	D:maj/4	4e	love's	.	.	.	110.206	.
.	.	8A	sweet	.	.	.	.	.
.	.	16A	char-	.	.	.	.	.
.	.	16B	-i-	.	.	.	.	.
=42	=42	=42	=42	=42	=42	=42	=42	=42
2CM	C:maj/5	16A	-ty	1r	.	b	111.541	.
.	.	8.G	_	.	.	.	.	.
.	.	4r	.	.	.	.	.	.
2DM	D:maj/4	2r	.	.	.	.	112.876	.
=43	=43	=43	=43	=43	=43	=43	=43	=43
2GM	G:maj	4r	.	1r	.	.	114.211	newline
.	.	16d	and	.	.	.	.	.
.	.	16d	I'm	.	.	.	.	.
.	.	16d	gon-	.	.	.	.	.
.	.	16d	-na	.	.	.	.	.
2DM	D:maj/3	8g	hold	.	.	.	115.533	.
.	.	4e	on	.	.	.	.	.
.	.	16d	for	.	.	.	.	.
.	.	16d	the	.	.	.	.	.
=44	=44	=44	=44	=44	=44	=44	=44	=44
2CM	C:maj/3	8g	rest	1r	.	.	116.854	.
.	.	8e	of	.	.	.	.	.
.	.	8e	my	.	.	.	.	.
.	.	16B	days	.	.	.	.	.
.	.	16A	_	.	.	.	.	.
4CM	C:maj	4G	_	.	.	.	118.176	.
4CM	C:maj/7	4r	.	.	.	.	118.836	.
=45	=45	=45	=45	=45	=45	=45	=45	=45
1Am	A:min	4r	.	1r	.	.	119.497	newline
.	.	16r	.	.	.	.	.	.
.	.	16e	'cause	.	.	.	.	.
.	.	8e	I	.	.	.	.	.
.	.	8g	know	.	.	.	.	.
.	.	8g	what	.	.	.	.	.
.	.	8g	it	.	.	.	.	.
.	.	8e	means	.	.	B	.	.
=46	=46	=46	=46	=46	=46	=46	=46	=46
1DM	D:maj	8e	_	1r	.	.	122.158	.
.	.	4.d	_	.	.	.	.	.
.	.	4r	.	.	.	.	.	.
.	.	8r	.	.	.	.	.	.
.	.	16r	.	.	.	.	.	.
.	.	16e	to	.	.	.	.	.
=47	=47	=47	=47	=47	=47	=47	=47	=47
1Am	A:min	8g	walk	1r	.	.	124.819	.
.	.	16g	a-	.	.	.	.	.
.	.	[16g	-long	.	.	.	.	.
.	.	8g]	_	.	.	.	.	.
.	.	16r	.	.	.	.	.	.
.	.	16e	the	.	.	.	.	.
.	.	8g	lone-	.	.	.	.	.
.	.	8g	-ly	.	.	.	.	.
.	.	16b	street	.	.	B	.	.
.	.	16a	_	.	.	.	.	.
.	.	16g	of	.	.	.	.	.
.	.	[16a	dreams	.	.	B	.	.
=48	=48	=48	=48	=48	=48	=48	=48	=48
2DM	D:maj	4a]	_	1r	.	.	127.48	.
.	.	8d	_	.	.	.	.	.
.	.	8r	.	.	.	.	.	.
4CM	C:maj	4r	.	.	.	.	128.81	.
4DM	D:maj	8.r	.	.	.	.	129.475	.
.	.	16d	And	.	.	.	.	.
=49	=49	=49	=49	=49	=49	=49	=49	=49
*>Letter>C	*>Letter>C	*>Letter>C	*>Letter>C	*>Letter>C	*>Letter>C	*>Letter>C	*>Letter>C	*>Letter>C
*>Label>Chorus	*>Label>Chorus	*>Label>Chorus	*>Label>Chorus	*>Label>Chorus	*>Label>Chorus	*>Label>Chorus	*>Label>Chorus	*>Label>Chorus
2GM	G:maj	8g	here	8b	Here	.	130.141	newline
.	.	16e	I	16a	I	.	.	.
.	.	[16d	go	[16g	go	.	.	.
.	.	16d]	_	16g]	_	.	.	.
.	.	16r	.	16r	.	.	.	.
.	.	16e	a-	16a	a-	.	.	.
.	.	[16g	-gain	[16b	-gain	.	.	.
2CM	C:maj	8g]	_	8b]	_	.	131.473	.
.	.	8e	on	8g	on	.	.	.
.	.	8e	my	8g	my	.	.	.
.	.	16f#	own	16a	own	C	.	.
.	.	16e	_	16g	_	.	.	.
=50	=50	=50	=50	=50	=50	=50	=50	=50
2DM	D:maj	4d	_	4f#	_	.	132.805	.
.	.	4r	.	4r	.	.	.	.
4CM	C:maj	4r	.	4r	.	.	134.138	.
4DM	D:maj	8r	.	8r	.	.	134.804	.
.	.	16d	Go-	16g	Go-	.	.	.
.	.	16e	-ing	16a	-ing	.	.	.
=51	=51	=51	=51	=51	=51	=51	=51	=51
2GM	G:maj	8g	down	8b	down	.	135.47	.
.	.	16g	the	16b	the	.	.	.
.	.	8g	on-	8b	on-	.	.	.
.	.	8g	-ly	8b	-ly	.	.	.
.	.	8.a	road	8.cc	road	C	.	.
2CM	C:maj	.	.	.	.	.	136.803	.
.	.	8g	I've	8b	I've	.	.	.
.	.	16g	e-	16b	e-	.	.	.
.	.	16g	-ver	16b	-ver	.	.	.
.	.	16f#	known	16a	known	C	.	.
.	.	16e	_	16g	_	.	.	.
=52	=52	=52	=52	=52	=52	=52	=52	=52
2DM	D:maj	8d	_	8f#	_	.	138.135	.
.	.	8r	.	8r	.	.	.	.
.	.	4r	.	4r	.	.	.	.
4CM	C:maj	4r	.	4r	.	.	139.467	.
4DM	D:maj	8r	.	8r	.	.	140.133	.
.	.	16d	Like	16g	Like	.	.	.
.	.	16e	a	16a	a	.	.	.
=53	=53	=53	=53	=53	=53	=53	=53	=53
2GM	G:maj	8g	drif-	8b	drif-	.	140.8	newline
.	.	16e	-ter	16a	-ter	.	.	.
.	.	[16d	I	[16g	I	.	.	.
.	.	16d]	_	16g]	_	.	.	.
.	.	8e	was	8a	was	.	.	.
.	.	[16g	born	[16b	born	.	.	.
2CM	C:maj	8.g]	_	8.b]	_	.	142.125	.
.	.	16e	to	16g	to	.	.	.
.	.	8e	walk	8g	walk	.	.	.
.	.	16e	a-	16g	a-	.	.	.
.	.	16e	-lone	16g	-lone	C	.	.
=54	=54	=54	=54	=54	=54	=54	=54	=54
2DM	D:maj	16f#	_	16a	_	.	143.45	.
.	.	16e	_	16g	_	.	.	.
.	.	8d	_	8f#	_	.	.	.
.	.	4r	.	4r	.	.	.	.
4CM	C:maj	2r	.	2r	.	.	144.775	.
4Bm	B:1	.	.	.	.	.	145.438	.
=55	=55	=55	=55	=55	=55	=55	=55	=55
1Am	A:min	4r	.	1r	.	.	146.1	newline
.	.	16r	.	.	.	.	.	.
.	.	16e	And	.	.	.	.	.
.	.	8e	I've	.	.	.	.	.
.	.	8b	made	.	.	.	.	.
.	.	8a	up	.	.	.	.	.
.	.	8g	my	.	.	.	.	.
.	.	[8a	mind	.	.	A	.	.
=56	=56	=56	=56	=56	=56	=56	=56	=56
1DM	D:maj	8a]	_	1r	.	.	148.767	.
.	.	8d	_	.	.	.	.	.
.	.	4r	.	.	.	.	.	.
.	.	2r	.	.	.	.	.	.
=57	=57	=57	=57	=57	=57	=57	=57	=57
1Am	A:min	4r	.	1r	.	.	151.434	.
.	.	16r	.	.	.	.	.	.
.	.	16g	I	.	.	.	.	.
.	.	8g	ain't	.	.	.	.	.
.	.	8b	wast-	.	.	.	.	.
.	.	16a	-in'	.	.	.	.	.
.	.	[16g	no	.	.	.	.	.
.	.	16g]	_	.	.	.	.	.
.	.	8g	more	.	.	.	.	.
.	.	[16a	time	.	.	A	.	.
=58	=58	=58	=58	=58	=58	=58	=58	=58
2DM	D:maj	8a]	_	1r	.	.	154.101	.
.	.	8d	_	.	.	.	.	.
.	.	8r	.	.	.	.	.	.
.	.	8d	And	.	.	.	.	.
4CM	C:maj	8b	here	.	.	.	155.435	.
.	.	8a	I	.	.	.	.	.
4DM	D:maj	8b	go	.	.	.	156.101	.
.	.	16a	a-	.	.	.	.	.
.	.	16g	-gain	.	.	.	.	.
=59	=59	=59	=59	=59	=59	=59	=59	=59
*>Letter>D	*>Letter>D	*>Letter>D	*>Letter>D	*>Letter>D	*>Letter>D	*>Letter>D	*>Letter>D	*>Letter>D
*>Label>Bridge	*>Label>Bridge	*>Label>Bridge	*>Label>Bridge	*>Label>Bridge	*>Label>Bridge	*>Label>Bridge	*>Label>Bridge	*>Label>Bridge
1Em	E:min	4e	_	1r	.	.	156.768	newline
.	.	4r	.	.	.	.	.	.
.	.	2r	.	.	.	.	.	.
=60	=60	=60	=60	=60	=60	=60	=60	=60
1Am	A:min	2r	.	1r	.	.	159.431	.
.	.	8b	Here	.	.	.	.	.
.	.	8b	I	.	.	.	.	.
.	.	8b	go	.	.	.	.	.
.	.	16a	a-	.	.	.	.	.
.	.	[16g	-gain	.	.	.	.	.
=61	=61	=61	=61	=61	=61	=61	=61	=61
1Em	E:min	16g]	_	1r	.	.	162.093	.
.	.	8.e	_	.	.	.	.	.
.	.	4r	.	.	.	.	.	.
.	.	2r	.	.	.	.	.	.
=62	=62	=62	=62	=62	=62	=62	=62	=62
1Am	A:min	2r	.	1r	.	.	164.755	.
.	.	8a	Here	.	.	.	.	.
.	.	8g	I	.	.	.	.	.
.	.	8a	go	.	.	.	.	.
.	.	16g	a-	.	.	.	.	.
.	.	[16b	-gain	.	.	.	.	.
=63	=63	=63	=63	=63	=63	=63	=63	=63
1Em	E:min	8b]	_	1r	.	.	167.418	newline
.	.	16dd	_	.	.	.	.	.
.	.	16b	_	.	.	.	.	.
.	.	16a	_	.	.	.	.	.
.	.	16g	_	.	.	.	.	.
.	.	8e	_	.	.	.	.	.
.	.	2r	.	.	.	.	.	.
=64	=64	=64	=64	=64	=64	=64	=64	=64
1Am	A:min	2r	.	1r	.	.	170.086	.
.	.	8a	Here	.	.	.	.	.
.	.	8g	I	.	.	.	.	.
.	.	[4ff#	go	.	.	C	.	.
=65	=65	=65	=65	=65	=65	=65	=65	=65
1Em	E:min	4.ff#]	_	1r	.	.	172.755	.
.	.	4.ee	_	.	.	.	.	.
.	.	4r	.	.	.	.	.	.
=66	=66	=66	=66	=66	=66	=66	=66	=66
2Am	A:min	1r	.	1r	.	.	175.424	.
4CM	C:maj	.	.	.	.	.	176.758	.
4DM	D:maj	.	.	.	.	.	177.425	.
=67	=67	=67	=67	=67	=67	=67	=67	=67
*>Letter>A	*>Letter>A	*>Letter>A	*>Letter>A	*>Letter>A	*>Letter>A	*>Letter>A	*>Letter>A	*>Letter>A
*>Label>Solo	*>Label>Solo	*>Label>Solo	*>Label>Solo	*>Label>Solo	*>Label>Solo	*>Label>Solo	*>Label>Solo	*>Label>Solo
2GM	G:maj	1r	.	1r	.	.	178.092	newline
2DM	D:maj/4	.	.	.	.	.	179.421	.
=68	=68	=68	=68	=68	=68	=68	=68	=68
2CM	C:maj/5	1r	.	1r	.	.	180.751	.
2DM	D:maj/4	.	.	.	.	.	182.08	.
=69	=69	=69	=69	=69	=69	=69	=69	=69
2GM	G:maj	1r	.	1r	.	.	183.409	.
2DM	D:maj/4	.	.	.	.	.	184.738	.
=70	=70	=70	=70	=70	=70	=70	=70	=70
2CM	C:maj/5	1r	.	1r	.	.	186.067	.
2DM	D:maj/4	.	.	.	.	.	187.396	.
=71	=71	=71	=71	=71	=71	=71	=71	=71
2GM	G:maj	1r	.	1r	.	.	188.726	newline
2DM	D:maj/3	.	.	.	.	.	190.053	.
=72	=72	=72	=72	=72	=72	=72	=72	=72
2CM	C:maj/3	1r	.	1r	.	.	191.38	.
4CM	C:maj	.	.	.	.	.	192.707	.
4CM	C:maj/7	.	.	.	.	.	193.371	.
=73	=73	=73	=73	=73	=73	=73	=73	=73
1Am	A:min	4r	.	1r	.	.	194.034	newline
.	.	16r	.	.	.	.	.	.
.	.	16e	'cause	.	.	.	.	.
.	.	8e	I	.	.	.	.	.
.	.	8g	know	.	.	.	.	.
.	.	8g	what	.	.	.	.	.
.	.	8g	it	.	.	.	.	.
.	.	8e	means	.	.	B	.	.
=74	=74	=74	=74	=74	=74	=74	=74	=74
1DM	D:maj	8e	_	1r	.	.	196.696	.
.	.	4.d	_	.	.	.	.	.
.	.	4r	.	.	.	.	.	.
.	.	8r	.	.	.	.	.	.
.	.	16r	.	.	.	.	.	.
.	.	16e	to	.	.	.	.	.
=75	=75	=75	=75	=75	=75	=75	=75	=75
1Am	A:min	8g	walk	1r	.	.	199.358	.
.	.	16g	a-	.	.	.	.	.
.	.	[16g	-long	.	.	.	.	.
.	.	8g]	_	.	.	.	.	.
.	.	16r	.	.	.	.	.	.
.	.	16e	the	.	.	.	.	.
.	.	8g	lone-	.	.	.	.	.
.	.	8g	-ly	.	.	.	.	.
.	.	16b	street	.	.	B	.	.
.	.	16a	_	.	.	.	.	.
.	.	16g	of	.	.	.	.	.
.	.	[16a	dreams	.	.	B	.	.
=76	=76	=76	=76	=76	=76	=76	=76	=76
2DM	D:maj	8a]	_	1r	.	.	202.021	.
.	.	8b	_	.	.	.	.	.
.	.	4r	.	.	.	.	.	.
4CM	C:maj	4r	.	.	.	.	203.352	.
4DM	D:maj	8r	.	.	.	.	204.017	.
.	.	16r	.	.	.	.	.	.
.	.	16d	And	.	.	.	.	.
=77	=77	=77	=77	=77	=77	=77	=77	=77
*>Letter>C	*>Letter>C	*>Letter>C	*>Letter>C	*>Letter>C	*>Letter>C	*>Letter>C	*>Letter>C	*>Letter>C
*>Label>Chorus	*>Label>Chorus	*>Label>Chorus	*>Label>Chorus	*>Label>Chorus	*>Label>Chorus	*>Label>Chorus	*>Label>Chorus	*>Label>Chorus
2GM	G:maj	8g	here	8b	Here	.	204.683	newline
.	.	16e	I	16a	I	.	.	.
.	.	[16d	go	[16g	go	.	.	.
.	.	16d]	_	16g]	_	.	.	.
.	.	16r	.	16r	.	.	.	.
.	.	16e	a-	16a	a-	.	.	.
.	.	[16g	-gain	[16b	-gain	.	.	.
2CM	C:maj	8g]	_	8b]	_	.	206.016	.
.	.	8e	on	8g	on	.	.	.
.	.	8e	my	8g	my	.	.	.
.	.	16f#	own	16a	own	C	.	.
.	.	16e	_	16g	_	.	.	.
=78	=78	=78	=78	=78	=78	=78	=78	=78
2DM	D:maj	4d	_	4f#	_	.	207.349	.
.	.	4r	.	4r	.	.	.	.
4CM	C:maj	4r	.	4r	.	.	208.682	.
4DM	D:maj	8r	.	8r	.	.	209.349	.
.	.	16d	Go-	16g	Go-	.	.	.
.	.	16e	-ing	16a	-ing	.	.	.
=79	=79	=79	=79	=79	=79	=79	=79	=79
2GM	G:maj	8g	down	8b	down	.	210.015	.
.	.	16g	the	16b	the	.	.	.
.	.	8g	on-	8b	on-	.	.	.
.	.	8g	-ly	8b	-ly	.	.	.
.	.	8.a	road	8.cc	road	C	.	.
2CM	C:maj	.	.	.	.	.	211.349	.
.	.	8g	I've	8b	I've	.	.	.
.	.	16g	e-	16b	e-	.	.	.
.	.	16g	-ver	16b	-ver	.	.	.
.	.	[8a	known	[8cc	known	C	.	.
=80	=80	=80	=80	=80	=80	=80	=80	=80
2DM	D:maj	16a]	_	16cc]	_	.	212.682	.
.	.	16b	_	16dd	_	.	.	.
.	.	8r	.	8r	.	.	.	.
.	.	4r	.	4r	.	.	.	.
4CM	C:maj	4r	.	4r	.	.	214.015	.
4DM	D:maj	8r	.	8r	.	.	214.681	.
.	.	16d	Like	16g	Like	.	.	.
.	.	16e	a	16a	a	.	.	.
=81	=81	=81	=81	=81	=81	=81	=81	=81
2GM	G:maj	8g	drif-	8b	drif-	.	215.348	newline
.	.	16e	-ter	16a	-ter	.	.	.
.	.	[16d	I	[16g	I	.	.	.
.	.	16d]	_	16g]	_	.	.	.
.	.	8e	was	8a	was	.	.	.
.	.	[16g	born	[16b	born	.	.	.
2CM	C:maj	8.g]	_	8.b]	_	.	216.677	.
.	.	16e	to	16g	to	.	.	.
.	.	8e	walk	8g	walk	.	.	.
.	.	16e	a-	16g	a-	.	.	.
.	.	16e	-lone	16g	-lone	C	.	.
=82	=82	=82	=82	=82	=82	=82	=82	=82
2DM	D:maj	16f#	_	16a	_	.	218.006	.
.	.	16e	_	16g	_	.	.	.
.	.	8d	_	8f#	_	.	.	.
.	.	4r	.	4r	.	.	.	.
4CM	C:maj	2r	.	2r	.	.	219.335	.
4Bm	B:1	.	.	.	.	.	219.999	.
=83	=83	=83	=83	=83	=83	=83	=83	=83
1Am	A:min	4r	.	1r	.	.	220.663	newline
.	.	16r	.	.	.	.	.	.
.	.	16e	And	.	.	.	.	.
.	.	8e	I've	.	.	.	.	.
.	.	8b	made	.	.	.	.	.
.	.	8a	up	.	.	.	.	.
.	.	8g	my	.	.	.	.	.
.	.	[8a	mind	.	.	A	.	.
=84	=84	=84	=84	=84	=84	=84	=84	=84
1DM	D:maj	8a]	_	1r	.	.	223.317	.
.	.	8d	_	.	.	.	.	.
.	.	4r	.	.	.	.	.	.
.	.	2r	.	.	.	.	.	.
=85	=85	=85	=85	=85	=85	=85	=85	=85
1Am	A:min	4r	.	1r	.	.	225.97	.
.	.	16r	.	.	.	.	.	.
.	.	16g	I	.	.	.	.	.
.	.	8g	ain't	.	.	.	.	.
.	.	8b	wast-	.	.	.	.	.
.	.	16a	-in'	.	.	.	.	.
.	.	[16g	no	.	.	.	.	.
.	.	16g]	_	.	.	.	.	.
.	.	8g	more	.	.	.	.	.
.	.	[16a	time	.	.	A	.	.
=86	=86	=86	=86	=86	=86	=86	=86	=86
2DM	D:maj	8a]	_	1r	.	.	228.623	.
.	.	8d	_	.	.	.	.	.
.	.	8r	.	.	.	.	.	.
.	.	8r	.	.	.	.	.	.
4CM	C:maj	4r	.	.	.	.	229.949	.
4DM	D:maj	8r	.	.	.	.	230.613	.
.	.	16r	.	.	.	.	.	.
.	.	16d	And	.	.	.	.	.
=87	=87	=87	=87	=87	=87	=87	=87	=87
*>Letter>C	*>Letter>C	*>Letter>C	*>Letter>C	*>Letter>C	*>Letter>C	*>Letter>C	*>Letter>C	*>Letter>C
*>Label>Chorus	*>Label>Chorus	*>Label>Chorus	*>Label>Chorus	*>Label>Chorus	*>Label>Chorus	*>Label>Chorus	*>Label>Chorus	*>Label>Chorus
2GM	G:maj	8g	here	8b	Here	.	231.276	newline
.	.	16e	I	16a	I	.	.	.
.	.	[16d	go	[16g	go	.	.	.
.	.	16d]	_	16g]	_	.	.	.
.	.	16r	.	16r	.	.	.	.
.	.	16e	a-	16a	a-	.	.	.
.	.	[16g	-gain	[16b	-gain	.	.	.
2CM	C:maj	8g]	_	8b]	_	.	232.61	.
.	.	8e	on	8g	on	.	.	.
.	.	8e	my	8g	my	.	.	.
.	.	16f#	own	16a	own	C	.	.
.	.	16e	_	16g	_	.	.	.
=88	=88	=88	=88	=88	=88	=88	=88	=88
2DM	D:maj	4d	_	4f#	_	.	233.945	.
.	.	4r	.	4r	.	.	.	.
4CM	C:maj	4r	.	4r	.	.	235.279	.
4DM	D:maj	8r	.	8r	.	.	235.946	.
.	.	16d	Go-	16g	Go-	.	.	.
.	.	16e	-ing	16a	-ing	.	.	.
=89	=89	=89	=89	=89	=89	=89	=89	=89
2GM	G:maj	8g	down	8b	down	.	236.613	.
.	.	16g	the	16b	the	.	.	.
.	.	8g	on-	8b	on-	.	.	.
.	.	8g	-ly	8b	-ly	.	.	.
.	.	8.a	road	8.cc	road	C	.	.
2CM	C:maj	.	.	.	.	.	237.947	.
.	.	8g	I've	8b	I've	.	.	.
.	.	16g	e-	16b	e-	.	.	.
.	.	16g	-ver	16b	-ver	.	.	.
.	.	[8a	known	[8cc	known	C	.	.
=90	=90	=90	=90	=90	=90	=90	=90	=90
2DM	D:maj	16a]	_	16cc]	_	.	239.282	.
.	.	16b	_	16dd	_	.	.	.
.	.	8r	.	8r	.	.	.	.
.	.	4r	.	4r	.	.	.	.
4CM	C:maj	4r	.	4r	.	.	240.616	.
4DM	D:maj	8r	.	8r	.	.	241.283	.
.	.	16d	Like	16g	Like	.	.	.
.	.	16e	a	16a	a	.	.	.
=91	=91	=91	=91	=91	=91	=91	=91	=91
2GM	G:maj	8g	drif-	8b	drif-	.	241.95	newline
.	.	16e	-ter	16a	-ter	.	.	.
.	.	[16d	I	[16g	I	.	.	.
.	.	16d]	_	16g]	_	.	.	.
.	.	8e	was	8a	was	.	.	.
.	.	[16g	born	[16b	born	.	.	.
2CM	C:maj	8.g]	_	8.b]	_	.	243.281	.
.	.	16e	to	16g	to	.	.	.
.	.	8e	walk	8g	walk	.	.	.
.	.	16e	a-	16g	a-	.	.	.
.	.	16e	-lone	16g	-lone	C	.	.
=92	=92	=92	=92	=92	=92	=92	=92	=92
2DM	D:maj	16f#	_	16a	_	.	244.611	.
.	.	16e	_	16g	_	.	.	.
.	.	8d	_	8f#	_	.	.	.
.	.	4r	.	4r	.	.	.	.
4CM	C:maj	2r	.	2r	.	.	245.942	.
4Bm	B:1	.	.	.	.	.	246.607	.
=93	=93	=93	=93	=93	=93	=93	=93	=93
1Am	A:min	4r	.	1r	.	.	247.272	newline
.	.	16r	.	.	.	.	.	.
.	.	16e	'Cause	.	.	.	.	.
.	.	8e	I	.	.	.	.	.
.	.	8b	know	.	.	C	.	.
.	.	8a	what	.	.	.	.	.
.	.	8g	it	.	.	.	.	.
.	.	[8a	means	.	.	B	.	.
=94	=94	=94	=94	=94	=94	=94	=94	=94
1DM	D:maj	8a]	_	1r	.	.	249.929	.
.	.	8d	_	.	.	.	.	.
.	.	4r	.	.	.	.	.	.
.	.	4r	.	.	.	.	.	.
.	.	8.r	.	.	.	.	.	.
.	.	16e	To	.	.	.	.	.
=95	=95	=95	=95	=95	=95	=95	=95	=95
1Am	A:min	8g	walk	1r	.	.	252.586	.
.	.	16g	a-	.	.	.	.	.
.	.	[16g	-long	.	.	.	.	.
.	.	8g]	_	.	.	.	.	.
.	.	16r	.	.	.	.	.	.
.	.	16g	the	.	.	.	.	.
.	.	8b	lon-	.	.	.	.	.
.	.	8cc	-ely	.	.	.	.	.
.	.	8.dd	street	.	.	B	.	.
.	.	16dd	of	.	.	.	.	.
=96	=96	=96	=96	=96	=96	=96	=96	=96
2DM	D:maj	8b	dreams	1r	.	B	255.244	.
.	.	8a	_	.	.	.	.	.
.	.	4r	.	.	.	.	.	.
4CM	C:maj	4r	.	.	.	.	256.572	.
4DM	D:maj	8r	.	.	.	.	257.237	.
.	.	16r	.	.	.	.	.	.
.	.	16d	And	.	.	.	.	.
=97	=97	=97	=97	=97	=97	=97	=97	=97
*>Letter>C	*>Letter>C	*>Letter>C	*>Letter>C	*>Letter>C	*>Letter>C	*>Letter>C	*>Letter>C	*>Letter>C
*>Label>Fadeout	*>Label>Fadeout	*>Label>Fadeout	*>Label>Fadeout	*>Label>Fadeout	*>Label>Fadeout	*>Label>Fadeout	*>Label>Fadeout	*>Label>Fadeout
2GM	G:maj	8g	here	8b	Here	.	257.901	newline
.	.	16e	I	16a	I	.	.	.
.	.	[16d	go	[16g	go	.	.	.
.	.	16d]	_	16g]	_	.	.	.
.	.	16r	.	16r	.	.	.	.
.	.	16e	a-	16a	a-	.	.	.
.	.	[16g	-gain	[16b	-gain	.	.	.
2CM	C:maj	8g]	_	8b]	_	.	259.238	.
.	.	8e	on	8g	on	.	.	.
.	.	8e	my	8g	my	.	.	.
.	.	16f#	own	16a	own	C	.	.
.	.	16e	_	16g	_	.	.	.
=98	=98	=98	=98	=98	=98	=98	=98	=98
2DM	D:maj	4d	_	4f#	_	.	260.576	.
.	.	4r	.	4r	.	.	.	.
4CM	C:maj	4r	.	4r	.	.	261.913	.
4DM	D:maj	8r	.	8r	.	.	262.582	.
.	.	16d	Go-	16g	Go-	.	.	.
.	.	16e	-ing	16a	-ing	.	.	.
=99	=99	=99	=99	=99	=99	=99	=99	=99
2GM	G:maj	8g	down	8b	down	.	263.251	.
.	.	16g	the	16b	the	.	.	.
.	.	8g	on-	8b	on-	.	.	.
.	.	8g	-ly	8b	-ly	.	.	.
.	.	8.a	road	8.cc	road	C	.	.
2CM	C:maj	.	.	.	.	.	264.588	.
.	.	8g	I've	8b	I've	.	.	.
.	.	16g	e-	16b	e-	.	.	.
.	.	16g	-ver	16b	-ver	.	.	.
.	.	[8a	known	[8cc	known	C	.	.
=100	=100	=100	=100	=100	=100	=100	=100	=100
2DM	D:maj	16a]	_	16cc]	_	.	265.926	.
.	.	16b	_	16dd	_	.	.	.
.	.	8r	.	8r	.	.	.	.
.	.	4r	.	4r	.	.	.	.
4CM	C:maj	4r	.	4r	.	.	267.263	.
4DM	D:maj	8r	.	8r	.	.	267.932	.
.	.	16d	Like	16g	Like	.	.	.
.	.	16e	a	16a	a	.	.	.
=101	=101	=101	=101	=101	=101	=101	=101	=101
2GM	G:maj	8g	drif-	8b	drif-	.	268.601	newline
.	.	16e	-ter	16a	-ter	.	.	.
.	.	[16d	I	[16g	I	.	.	.
.	.	16d]	_	16g]	_	.	.	.
.	.	8e	was	8a	was	.	.	.
.	.	[16g	born	[16b	born	.	.	.
2CM	C:maj	8.g]	_	8.b]	_	.	269.59	.
.	.	16e	to	16g	to	.	.	.
.	.	8e	walk	8g	walk	.	.	.
.	.	16e	a-	16g	a-	.	.	.
.	.	16e	-lone	16g	-lone	C	.	.
=102	=102	=102	=102	=102	=102	=102	=102	=102
2DM	D:maj	16f#	_	16a	_	.	270.578	.
.	.	16e	_	16g	_	.	.	.
.	.	8d	_	8f#	_	.	.	.
.	.	4r	.	4r	.	.	.	.
4CM	C:maj	2r	.	2r	.	.	271.567	.
4Bm	B:1	.	.	.	.	.	272.061	.
1r;	1r	r;	.	r;	.	.	272.556	.
1r;	1r	r;	.	r;	.	.	278.309	.
*-	*-	*-	*-	*-	*-	*-	*-	*-
!!!BillboardChartDate: 1987/09/26
!!!BillboardPeak: 1
!!!BillboardWeeksOnChart: 28
!!!COC: Whitesnake
!!!ENC: Nathaniel Condit-Schultz
!!!EST: Awating manual error checking and editing.
!!!OTL: Here I Go Again
!!!RDF**chordsym: original McGill chord annotation + (implied pitch class set, with bass pitch in first position)
!!!RDF**harmony: **recip + pitch class of root + harmonic quality
!!!RDF**leadinstrument: original McGill primary instrumentation annotation
!!!RDF**phrase: newline = linebreak in original McGill transcription
!!!RDF**timestamp: McGill audio timestamp in seconds
!!!RDT: 2017/01/12/
!!!SampleActualRank: 2
!!!SampleID#: 0300
!!!SampleTargetRank: 1
!!!MBID: f0c8a007-fc9d-4e75-af94-19541cab2af3
